icon-themes/sifr_svg/cmd/sc_forward.svg

<svg viewBox="0 0 16 16" xmlns="http://www.w3.org/2000/svg"><g fill="#555753"><path d="m4 1-3 3h7 4l3-3zm4 3-3 2h2v3h2v-3h2zm-4 8-3 3h11l3-3z"/><path d="m4 8-3 3h11l3-3h-5v2h-4v-2z" opacity=".35"/></g></svg>

<svg xmlns="http://www.w3.org/2000/svg" viewBox="0 0 16 16">
  <path
     style="fill:#555753"
     d="M 4 1 L 1 4 L 8 4 L 12 4 L 15 1 L 4 1 z M 8 4 L 5 6 L 7 6 L 7 9 L 9 9 L 9 6 L 11 6 L 8 4 z M 4 12 L 1 15 L 12 15 L 15 12 L 4 12 z "
     />
  <path
     style="opacity:0.35;fill:#555753"
     d="M 4 8 L 1 11 L 12 11 L 15 8 L 10 8 L 10 10 L 6 10 L 6 8 L 4 8 z "
     />
</svg>
